Newaita-dark/apps/256/vmware-netcfg.svg

<?xml version="1.0" encoding="UTF-8"?>
<svg xmlns="http://www.w3.org/2000/svg" xmlns:xlink="http://www.w3.org/1999/xlink" width="256pt" height="256pt" viewBox="0 0 256 256" version="1.1">
<defs>
<linearGradient id="linear0" gradientUnits="userSpaceOnUse" x1="328.96524" y1="233.5" x2="328.96524" y2="254.666672" gradientTransform="matrix(1.263278,0,0,0.500048,-346.776154,107.510266)">
<stop offset="0" style="stop-color:rgb(0%,0%,0%);stop-opacity:0.27451;"/>
<stop offset="1" style="stop-color:rgb(0%,0%,0%);stop-opacity:0;"/>
</linearGradient>
<radialGradient id="radial0" gradientUnits="userSpaceOnUse" cx="450.908936" cy="189.579361" fx="450.908936" fy="189.579361" r="21.166656" gradientTransform="matrix(0.00000139336,-0.62506,-1.125108,-0.000000812309,358.831322,508.762645)">
<stop offset="0" style="stop-color:rgb(0%,0%,0%);stop-opacity:0.313725;"/>
<stop offset="0.222222" style="stop-color:rgb(0%,0%,0%);stop-opacity:0.27451;"/>
<stop offset="1" style="stop-color:rgb(0%,0%,0%);stop-opacity:0;"/>
</radialGradient>
<radialGradient id="radial1" gradientUnits="userSpaceOnUse" cx="450.908936" cy="189.579361" fx="450.908936" fy="189.579361" r="21.166656" gradientTransform="matrix(-0.00000139336,0.62506,1.125108,0.000000812309,-163.020876,-60.219846)">
<stop offset="0" style="stop-color:rgb(0%,0%,0%);stop-opacity:0.313725;"/>
<stop offset="0.222222" style="stop-color:rgb(0%,0%,0%);stop-opacity:0.27451;"/>
<stop offset="1" style="stop-color:rgb(0%,0%,0%);stop-opacity:0;"/>
</radialGradient>
<radialGradient id="radial2" gradientUnits="userSpaceOnUse" cx="450.908936" cy="189.579361" fx="450.908936" fy="189.579361" r="21.166656" gradientTransform="matrix(-0.00000139336,-0.62506,1.125108,-0.000000812309,-163.020876,508.762645)">
<stop offset="0" style="stop-color:rgb(0%,0%,0%);stop-opacity:0.313725;"/>
<stop offset="0.222222" style="stop-color:rgb(0%,0%,0%);stop-opacity:0.27451;"/>
<stop offset="1" style="stop-color:rgb(0%,0%,0%);stop-opacity:0;"/>
</radialGradient>
<radialGradient id="radial3" gradientUnits="userSpaceOnUse" cx="450.908936" cy="189.579361" fx="450.908936" fy="189.579361" r="21.166656" gradientTransform="matrix(0.00000139336,0.62506,-1.125108,0.000000812309,358.831306,-60.21985)">
<stop offset="0" style="stop-color:rgb(0%,0%,0%);stop-opacity:0.313725;"/>
<stop offset="0.222222" style="stop-color:rgb(0%,0%,0%);stop-opacity:0.27451;"/>
<stop offset="1" style="stop-color:rgb(0%,0%,0%);stop-opacity:0;"/>
</radialGradient>
<linearGradient id="linear1" gradientUnits="userSpaceOnUse" x1="760" y1="1695.118164" x2="760" y2="615.118103" gradientTransform="matrix(0.132304,0,0,0.132304,0,0)">
<stop offset="0" style="stop-color:rgb(25.882353%,64.705882%,96.078431%);stop-opacity:1;"/>
<stop offset="1" style="stop-color:rgb(39.215686%,70.980392%,96.470588%);stop-opacity:1;"/>
</linearGradient>
<linearGradient id="linear2" gradientUnits="userSpaceOnUse" x1="1200" y1="1255.118164" x2="1200" y2="175.118118" gradientTransform="matrix(0.132304,0,0,0.132304,0,0)">
<stop offset="0" style="stop-color:rgb(100%,65.490196%,14.901961%);stop-opacity:1;"/>
<stop offset="1" style="stop-color:rgb(100%,71.764706%,30.196078%);stop-opacity:1;"/>
</linearGradient>
</defs>
<g id="surface1">
<path style=" stroke:none;fill-rule:nonzero;fill:url(#linear0);" d="M 47.628906 224.269531 L 148.179688 224.269531 L 148.179688 234.855469 L 47.628906 234.855469 Z M 47.628906 224.269531 "/>
<path style=" stroke:none;fill-rule:nonzero;fill:url(#radial0);" d="M 148.179688 224.269531 L 169.347656 224.269531 L 169.347656 213.6875 L 148.179688 213.6875 Z M 148.179688 224.269531 "/>
<path style=" stroke:none;fill-rule:nonzero;fill:url(#radial1);" d="M 47.628906 224.269531 L 26.460938 224.269531 L 26.460938 234.855469 L 47.628906 234.855469 Z M 47.628906 224.269531 "/>
<path style=" stroke:none;fill-rule:nonzero;fill:url(#radial2);" d="M 47.628906 224.269531 L 26.460938 224.269531 L 26.460938 213.6875 L 47.628906 213.6875 Z M 47.628906 224.269531 "/>
<path style=" stroke:none;fill-rule:nonzero;fill:url(#radial3);" d="M 148.179688 224.269531 L 169.347656 224.269531 L 169.347656 234.855469 L 148.179688 234.855469 Z M 148.179688 224.269531 "/>
<path style=" stroke:none;fill-rule:nonzero;fill:url(#linear1);" d="M 42.335938 81.382812 C 33.542969 81.382812 26.460938 88.464844 26.460938 97.257812 L 26.460938 208.394531 C 26.460938 217.191406 33.542969 224.269531 42.335938 224.269531 L 153.472656 224.269531 C 162.269531 224.269531 169.347656 217.191406 169.347656 208.394531 L 169.347656 103.796875 L 137.597656 135.550781 L 137.597656 181.933594 C 137.597656 187.796875 132.875 192.519531 127.011719 192.519531 L 68.796875 192.519531 C 62.933594 192.519531 58.214844 187.796875 58.214844 181.933594 L 58.214844 123.71875 C 58.214844 117.855469 62.933594 113.136719 68.796875 113.136719 L 115.105469 113.136719 L 146.859375 81.382812 Z M 42.335938 81.382812 "/>
<path style=" stroke:none;fill-rule:nonzero;fill:url(#linear2);" d="M 100.550781 23.167969 C 91.753906 23.167969 84.675781 30.25 84.675781 39.046875 L 84.675781 81.382812 L 116.429688 81.382812 L 116.429688 65.507812 C 116.429688 59.640625 121.148438 54.921875 127.011719 54.921875 L 185.226562 54.921875 C 191.089844 54.921875 195.808594 59.640625 195.808594 65.507812 L 195.808594 123.71875 C 195.808594 129.582031 191.089844 134.304688 185.226562 134.304688 L 138.839844 134.304688 L 107.089844 166.058594 L 211.6875 166.058594 C 220.484375 166.058594 227.5625 158.976562 227.5625 150.179688 L 227.5625 39.046875 C 227.5625 30.25 220.484375 23.167969 211.6875 23.167969 Z M 84.675781 113.136719 L 84.675781 143.566406 L 115.105469 113.136719 Z M 84.675781 113.136719 "/>
<path style=" stroke:none;fill-rule:nonzero;fill:rgb(100%,100%,100%);fill-opacity:0.470588;" d="M 100.550781 23.167969 C 91.753906 23.167969 84.675781 30.25 84.675781 39.046875 L 84.675781 41.691406 C 84.675781 32.894531 91.753906 25.816406 100.550781 25.816406 L 211.6875 25.816406 C 220.484375 25.816406 227.5625 32.894531 227.5625 41.691406 L 227.5625 39.046875 C 227.5625 30.25 220.484375 23.167969 211.6875 23.167969 Z M 195.808594 123.71875 C 195.808594 129.582031 191.089844 134.304688 185.226562 134.304688 L 138.839844 134.304688 L 107.089844 166.058594 L 109.734375 166.058594 L 138.839844 136.949219 L 185.226562 136.949219 C 191.089844 136.949219 195.808594 132.230469 195.808594 126.367188 Z M 195.808594 123.71875 "/>
<path style=" stroke:none;fill-rule:nonzero;fill:rgb(12.941177%,12.941177%,12.941177%);fill-opacity:1;" d="M 100.550781 22.417969 C 91.351562 22.417969 83.925781 29.847656 83.925781 39.046875 L 83.925781 81.382812 C 83.925781 81.796875 84.261719 82.132812 84.675781 82.132812 L 116.429688 82.132812 C 116.84375 82.132812 117.179688 81.796875 117.179688 81.382812 L 117.179688 65.507812 C 117.179688 60.046875 121.550781 55.671875 127.011719 55.671875 L 185.226562 55.671875 C 190.6875 55.671875 195.058594 60.046875 195.058594 65.507812 L 195.058594 123.71875 C 195.058594 129.179688 190.6875 133.554688 185.226562 133.554688 L 138.839844 133.554688 C 138.644531 133.554688 138.453125 133.632812 138.3125 133.773438 L 106.558594 165.527344 C 106.34375 165.742188 106.28125 166.0625 106.394531 166.34375 C 106.511719 166.625 106.785156 166.808594 107.089844 166.808594 L 211.6875 166.808594 C 220.886719 166.808594 228.3125 159.378906 228.3125 150.179688 L 228.3125 39.046875 C 228.3125 29.847656 220.886719 22.417969 211.6875 22.417969 Z M 100.550781 23.917969 L 211.6875 23.917969 C 220.078125 23.917969 226.8125 30.652344 226.8125 39.046875 L 226.8125 150.179688 C 226.8125 158.574219 220.078125 165.308594 211.6875 165.308594 L 108.898438 165.308594 L 139.152344 135.054688 L 185.226562 135.054688 C 191.492188 135.054688 196.558594 129.984375 196.558594 123.71875 L 196.558594 65.507812 C 196.558594 59.238281 191.492188 54.171875 185.226562 54.171875 L 127.011719 54.171875 C 120.746094 54.171875 115.675781 59.238281 115.675781 65.507812 L 115.675781 80.632812 L 85.425781 80.632812 L 85.425781 39.046875 C 85.425781 30.652344 92.160156 23.917969 100.550781 23.917969 Z M 84.675781 112.386719 C 84.261719 112.386719 83.925781 112.722656 83.925781 113.136719 L 83.925781 143.566406 C 83.925781 143.867188 84.105469 144.144531 84.386719 144.257812 C 84.667969 144.375 84.992188 144.3125 85.207031 144.097656 L 115.636719 113.667969 C 115.851562 113.453125 115.914062 113.128906 115.796875 112.847656 C 115.683594 112.566406 115.40625 112.386719 115.105469 112.386719 Z M 85.425781 113.886719 L 113.292969 113.886719 L 85.425781 141.753906 Z M 85.425781 113.886719 "/>
<path style=" stroke:none;fill-rule:nonzero;fill:rgb(0%,0%,0%);fill-opacity:0.235294;" d="M 127.011719 52.277344 C 121.148438 52.277344 116.429688 56.996094 116.429688 62.859375 L 116.429688 65.507812 C 116.429688 59.640625 121.148438 54.921875 127.011719 54.921875 L 185.226562 54.921875 C 191.089844 54.921875 195.808594 59.640625 195.808594 65.507812 L 195.808594 62.859375 C 195.808594 56.996094 191.089844 52.277344 185.226562 52.277344 Z M 112.457031 113.136719 L 84.675781 140.917969 L 84.675781 143.566406 L 115.105469 113.136719 Z M 227.5625 147.535156 C 227.5625 156.332031 220.484375 163.410156 211.6875 163.410156 L 109.734375 163.410156 L 107.089844 166.058594 L 211.6875 166.058594 C 220.484375 166.058594 227.5625 158.976562 227.5625 150.179688 Z M 227.5625 147.535156 "/>
<path style=" stroke:none;fill-rule:nonzero;fill:rgb(100%,100%,100%);fill-opacity:0.392157;" d="M 42.335938 81.382812 C 33.542969 81.382812 26.460938 88.464844 26.460938 97.257812 L 26.460938 99.90625 C 26.460938 91.109375 33.542969 84.027344 42.335938 84.027344 L 144.210938 84.027344 L 146.859375 81.382812 Z M 169.347656 103.796875 L 140.242188 133.644531 L 142.226562 133.644531 L 169.347656 106.441406 Z M 58.214844 181.933594 L 58.214844 184.578125 C 58.214844 190.445312 62.933594 195.164062 68.796875 195.164062 L 127.011719 195.164062 C 132.875 195.164062 137.597656 190.445312 137.597656 184.578125 L 137.597656 181.933594 C 137.597656 187.796875 132.875 192.519531 127.011719 192.519531 L 68.796875 192.519531 C 62.933594 192.519531 58.214844 187.796875 58.214844 181.933594 Z M 58.214844 181.933594 "/>
<path style=" stroke:none;fill-rule:nonzero;fill:rgb(0%,0%,0%);fill-opacity:0.235294;" d="M 144.261719 81.382812 L 115.105469 110.539062 L 68.796875 110.539062 C 62.933594 110.539062 58.214844 115.257812 58.214844 121.125 L 58.214844 123.71875 C 58.214844 117.855469 62.933594 113.136719 68.796875 113.136719 L 115.105469 113.136719 L 146.859375 81.382812 Z M 26.460938 205.796875 L 26.460938 208.394531 C 26.460938 217.191406 33.542969 224.269531 42.335938 224.269531 L 153.472656 224.269531 C 162.269531 224.269531 169.347656 217.191406 169.347656 208.394531 L 169.347656 205.796875 C 169.347656 214.59375 162.269531 221.675781 153.472656 221.675781 L 42.335938 221.675781 C 33.542969 221.675781 26.460938 214.59375 26.460938 205.796875 Z M 26.460938 205.796875 "/>
<path style=" stroke:none;fill-rule:nonzero;fill:rgb(12.941177%,12.941177%,12.941177%);fill-opacity:1;" d="M 42.335938 80.632812 C 33.140625 80.632812 25.710938 88.0625 25.710938 97.257812 L 25.710938 208.394531 C 25.710938 217.59375 33.140625 225.019531 42.335938 225.019531 L 153.472656 225.019531 C 162.671875 225.019531 170.101562 217.59375 170.101562 208.394531 L 170.101562 166.058594 L 168.597656 166.058594 L 168.597656 208.394531 C 168.597656 216.789062 161.867188 223.519531 153.472656 223.519531 L 42.335938 223.519531 C 33.945312 223.519531 27.210938 216.789062 27.210938 208.394531 L 27.210938 97.257812 C 27.210938 88.867188 33.945312 82.132812 42.335938 82.132812 L 145.046875 82.132812 L 114.792969 112.386719 L 68.796875 112.386719 C 62.53125 112.386719 57.464844 117.453125 57.464844 123.71875 L 57.464844 181.933594 C 57.464844 188.199219 62.53125 193.269531 68.796875 193.269531 L 127.011719 193.269531 C 133.277344 193.269531 138.347656 188.199219 138.347656 181.933594 L 138.347656 166.058594 L 136.847656 166.058594 L 136.847656 181.933594 C 136.847656 187.394531 132.472656 191.769531 127.011719 191.769531 L 68.796875 191.769531 C 63.335938 191.769531 58.964844 187.394531 58.964844 181.933594 L 58.964844 123.71875 C 58.964844 118.257812 63.335938 113.886719 68.796875 113.886719 L 115.105469 113.886719 C 115.304688 113.886719 115.496094 113.808594 115.636719 113.667969 L 147.386719 81.914062 C 147.601562 81.699219 147.667969 81.375 147.550781 81.09375 C 147.433594 80.816406 147.160156 80.632812 146.859375 80.632812 Z M 169.328125 103.046875 C 169.136719 103.050781 168.953125 103.128906 168.820312 103.265625 L 137.78125 134.304688 L 139.902344 134.304688 L 168.597656 105.609375 L 168.597656 134.304688 L 170.101562 134.304688 L 170.101562 103.796875 C 170.101562 103.59375 170.019531 103.398438 169.871094 103.257812 C 169.726562 103.117188 169.53125 103.039062 169.328125 103.046875 Z M 169.328125 103.046875 "/>
</g>
</svg>

<svg xmlns="http://www.w3.org/2000/svg" width="256pt" height="256pt" viewBox="0 0 256 256"><defs><linearGradient id="a" gradientUnits="userSpaceOnUse" x1="328.965" y1="233.5" x2="328.965" y2="254.667" gradientTransform="matrix(1.26328 0 0 .50005 -346.776 107.51)"><stop offset="0" stop-opacity=".275"/><stop offset="1" stop-opacity="0"/></linearGradient><radialGradient id="b" gradientUnits="userSpaceOnUse" cx="450.909" cy="189.579" fx="450.909" fy="189.579" r="21.167" gradientTransform="matrix(0 -.62506 -1.1251 0 358.831 508.763)"><stop offset="0" stop-opacity=".314"/><stop offset=".222" stop-opacity=".275"/><stop offset="1" stop-opacity="0"/></radialGradient><radialGradient id="c" gradientUnits="userSpaceOnUse" cx="450.909" cy="189.579" fx="450.909" fy="189.579" r="21.167" gradientTransform="matrix(0 .62506 1.1251 0 -163.02 -60.22)"><stop offset="0" stop-opacity=".314"/><stop offset=".222" stop-opacity=".275"/><stop offset="1" stop-opacity="0"/></radialGradient><radialGradient id="d" gradientUnits="userSpaceOnUse" cx="450.909" cy="189.579" fx="450.909" fy="189.579" r="21.167" gradientTransform="matrix(0 -.62506 1.1251 0 -163.02 508.763)"><stop offset="0" stop-opacity=".314"/><stop offset=".222" stop-opacity=".275"/><stop offset="1" stop-opacity="0"/></radialGradient><radialGradient id="e" gradientUnits="userSpaceOnUse" cx="450.909" cy="189.579" fx="450.909" fy="189.579" r="21.167" gradientTransform="matrix(0 .62506 -1.1251 0 358.831 -60.22)"><stop offset="0" stop-opacity=".314"/><stop offset=".222" stop-opacity=".275"/><stop offset="1" stop-opacity="0"/></radialGradient><linearGradient id="f" gradientUnits="userSpaceOnUse" x1="760" y1="1695.118" x2="760" y2="615.118" gradientTransform="scale(.1323)"><stop offset="0" stop-color="#42a5f5"/><stop offset="1" stop-color="#64b5f6"/></linearGradient><linearGradient id="g" gradientUnits="userSpaceOnUse" x1="1200" y1="1255.118" x2="1200" y2="175.118" gradientTransform="scale(.1323)"><stop offset="0" stop-color="#ffa726"/><stop offset="1" stop-color="#ffb74d"/></linearGradient></defs><path d="M47.629 224.27h100.55v10.585H47.63zm0 0" fill="url(#a)"/><path d="M148.18 224.27h21.168v-10.583H148.18zm0 0" fill="url(#b)"/><path d="M47.629 224.27H26.46v10.585h21.168zm0 0" fill="url(#c)"/><path d="M47.629 224.27H26.46v-10.583h21.168zm0 0" fill="url(#d)"/><path d="M148.18 224.27h21.168v10.585H148.18zm0 0" fill="url(#e)"/><path d="M42.336 81.383A15.843 15.843 0 0 0 26.46 97.258v111.137a15.84 15.84 0 0 0 15.875 15.875h111.137a15.838 15.838 0 0 0 15.875-15.875V103.797l-31.75 31.754v46.383a10.564 10.564 0 0 1-10.586 10.586H68.797a10.561 10.561 0 0 1-10.582-10.586v-58.215a10.558 10.558 0 0 1 10.582-10.582h46.308l31.754-31.754zm0 0" fill="url(#f)"/><path d="M100.55 23.168a15.84 15.84 0 0 0-15.874 15.879v42.336h31.754V65.508a10.559 10.559 0 0 1 10.582-10.586h58.215a10.559 10.559 0 0 1 10.582 10.586v58.21a10.561 10.561 0 0 1-10.582 10.587H138.84l-31.75 31.754h104.597a15.84 15.84 0 0 0 15.875-15.88V39.048a15.84 15.84 0 0 0-15.875-15.879zm-15.874 89.969v30.43l30.43-30.43zm0 0" fill="url(#g)"/><path d="M100.55 23.168a15.84 15.84 0 0 0-15.874 15.879v2.644a15.838 15.838 0 0 1 15.875-15.875h111.136a15.838 15.838 0 0 1 15.875 15.875v-2.644a15.84 15.84 0 0 0-15.875-15.879zm95.259 100.55a10.561 10.561 0 0 1-10.582 10.587H138.84l-31.75 31.754h2.644l29.106-29.11h46.387a10.558 10.558 0 0 0 10.582-10.582zm0 0" fill="#fff" fill-opacity=".471"/><path d="M100.55 22.418c-9.198 0-16.624 7.43-16.624 16.629v42.336c0 .414.336.75.75.75h31.754a.75.75 0 0 0 .75-.75V65.508a9.796 9.796 0 0 1 9.832-9.836h58.215a9.796 9.796 0 0 1 9.832 9.836v58.21a9.796 9.796 0 0 1-9.832 9.837H138.84a.749.749 0 0 0-.528.218l-31.753 31.754a.753.753 0 0 0-.164.817c.117.281.39.465.695.465h104.597c9.2 0 16.625-7.43 16.625-16.63V39.048c0-9.2-7.425-16.629-16.625-16.629zm0 1.5h111.138c8.39 0 15.125 6.734 15.125 15.129V150.18a15.078 15.078 0 0 1-15.125 15.129h-102.79l30.254-30.254h46.075c6.265 0 11.332-5.07 11.332-11.336V65.508c0-6.27-5.067-11.336-11.332-11.336h-58.215a11.327 11.327 0 0 0-11.336 11.336v15.125h-30.25V39.047a15.078 15.078 0 0 1 15.125-15.129zm-15.874 88.469a.75.75 0 0 0-.75.75v30.43a.751.751 0 0 0 1.281.531l30.43-30.43a.751.751 0 0 0-.532-1.281zm.75 1.5h27.867l-27.867 27.867zm0 0" fill="#212121"/><path d="M127.012 52.277A10.558 10.558 0 0 0 116.43 62.86v2.649a10.559 10.559 0 0 1 10.582-10.586h58.215a10.559 10.559 0 0 1 10.582 10.586v-2.649a10.558 10.558 0 0 0-10.582-10.582zm-14.555 60.86l-27.781 27.781v2.648l30.43-30.43zm115.106 34.398a15.838 15.838 0 0 1-15.875 15.875H109.734l-2.644 2.649h104.597a15.84 15.84 0 0 0 15.875-15.88zm0 0" fill-opacity=".235"/><path d="M42.336 81.383A15.843 15.843 0 0 0 26.46 97.258v2.648a15.843 15.843 0 0 1 15.875-15.879H144.21l2.648-2.644zm127.012 22.414l-29.106 29.848h1.985l27.12-27.204zM58.215 181.934v2.644a10.559 10.559 0 0 0 10.582 10.586h58.215a10.562 10.562 0 0 0 10.586-10.586v-2.644a10.564 10.564 0 0 1-10.586 10.586H68.797a10.561 10.561 0 0 1-10.582-10.586zm0 0" fill="#fff" fill-opacity=".392"/><path d="M144.262 81.383l-29.157 29.156H68.797a10.559 10.559 0 0 0-10.582 10.586v2.594a10.558 10.558 0 0 1 10.582-10.582h46.308l31.754-31.754zM26.46 205.797v2.598a15.84 15.84 0 0 0 15.875 15.875h111.137a15.838 15.838 0 0 0 15.875-15.875v-2.598a15.84 15.84 0 0 1-15.875 15.879H42.336a15.843 15.843 0 0 1-15.875-15.88zm0 0" fill-opacity=".235"/><path d="M42.336 80.633c-9.195 0-16.625 7.43-16.625 16.625v111.137c0 9.199 7.43 16.625 16.625 16.625h111.137c9.199 0 16.629-7.426 16.629-16.625v-42.336h-1.504v42.336c0 8.394-6.73 15.125-15.125 15.125H42.336c-8.39 0-15.125-6.73-15.125-15.125V97.258c0-8.39 6.734-15.125 15.125-15.125h102.71l-30.253 30.254H68.797a11.323 11.323 0 0 0-11.332 11.332v58.215c0 6.265 5.066 11.336 11.332 11.336h58.215a11.33 11.33 0 0 0 11.336-11.336v-15.875h-1.5v15.875a9.8 9.8 0 0 1-9.836 9.836H68.797a9.796 9.796 0 0 1-9.832-9.836v-58.215a9.793 9.793 0 0 1 9.832-9.832h46.308c.2 0 .391-.078.532-.219l31.75-31.754a.752.752 0 0 0 .164-.82.754.754 0 0 0-.692-.461zm126.992 22.414a.73.73 0 0 0-.508.219l-31.039 31.039h2.121l28.696-28.696v28.696h1.504v-30.508a.742.742 0 0 0-.23-.54.739.739 0 0 0-.544-.21zm0 0" fill="#212121"/></svg>
